public/cloud-icons/azure/data/sql-database-query-performance-insight.svg

<svg xmlns="http://www.w3.org/2000/svg" xml:space="preserve" width="56.693" height="56.695" style="font-size:12px;overflow:visible;color-interpolation-filters:sRGB;fill-rule:evenodd;stroke-linecap:square;stroke-miterlimit:3" viewBox="0 0 56.693 56.695"><g transform="translate(-5.67 -5.67)"><title>Page-1</title><g transform="translate(5.67 -34.016)"><title>SQL Database Query Performance Insight.20364</title><title>Sheet.20365</title><g transform="translate(3.77 -45.355)"><title>Sheet.20366</title><ellipse cx="18.896" cy="90.709" rx="18.896" ry="5.669" style="fill:#b8d432;stroke:none;stroke-width:.038081;stroke-linecap:butt"/></g><g transform="translate(7.92 -45.355)"><title>Sheet.20367</title><path d="M29.5 94.25c-3.46-1.29-8.78-2.12-14.75-2.12S3.46 92.96 0 94.25c3.46 1.3 8.78 2.13 14.75 2.13s11.29-.83 14.75-2.13" style="fill:#57a300;stroke:none;stroke-width:.038081;stroke-linecap:butt"/></g><title>Sheet.20368</title><path d="m45.36 47.24-.01 40.64c0 4.69-10.15 8.5-22.67 8.5S0 92.57 0 87.88l.01-40.64c0 4.7 10.15 8.5 22.67 8.5s22.68-3.8 22.68-8.5" style="fill:#6dc2e9;stroke:none;stroke-width:.038081;stroke-linecap:butt"/><g transform="translate(3.778 -22.669)"><title>Sheet.20369</title><path d="M0 77.48h11.34v11.33H0Zm22.67 7.56h11.34v11.34H22.67Zm18.9-18.9h11.34v11.34H41.57Z" style="fill:#804998;stroke:none;stroke-width:.038081;stroke-linecap:butt"/></g><g transform="translate(7.56 -26.454)"><title>Sheet.20370</title><path d="m0 85.04 22.67 7.56 18.9-18.9 3.78 3.78L25.9 95.82l.56.56-1.9-.01L0 88.81Z" style="fill:#804998;stroke:none;stroke-width:.038081;stroke-linecap:butt"/></g><g transform="translate(3.778)"><title>Sheet.20371</title><path d="M0 77.477h52.915v18.901H0z" style="fill:gray;stroke:none;stroke-width:.038081;stroke-linecap:butt"/></g><g transform="translate(7.56 -3.778)"><title>Sheet.20372</title><path d="M0 96.38h45.35V85.04H0Zm3.78-3.78h3.78v-3.78H3.78Z" style="fill:#fff;stroke:none;stroke-width:.038081;stroke-linecap:butt"/></g></g></g></svg>

<?xml version="1.0" encoding="UTF-8" standalone="no"?>
<!-- Generated by Microsoft Visio, SVG Export SQL Database Query Performance Insight.svg Page-1 -->

<svg
   xmlns:dc="http://purl.org/dc/elements/1.1/"
   xmlns:cc="http://creativecommons.org/ns#"
   xmlns:rdf="http://www.w3.org/1999/02/22-rdf-syntax-ns#"
   xmlns:svg="http://www.w3.org/2000/svg"
   xmlns="http://www.w3.org/2000/svg"
   xmlns:sodipodi="http://sodipodi.sourceforge.net/DTD/sodipodi-0.dtd"
   xmlns:inkscape="http://www.inkscape.org/namespaces/inkscape"
   width="56.692883"
   height="56.694939"
   viewBox="0 0 56.692881 56.69494"
   xml:space="preserve"
   class="st7"
   version="1.1"
   id="svg49"
   sodipodi:docname="SQL Database Query Performance Insight.svg"
   style="font-size:12px;overflow:visible;color-interpolation-filters:sRGB;fill:none;fill-rule:evenodd;stroke-linecap:square;stroke-miterlimit:3"
   inkscape:version="0.92.5 (2060ec1f9f, 2020-04-08)"><metadata
   id="metadata55"><rdf:RDF><cc:Work
       rdf:about=""><dc:format>image/svg+xml</dc:format><dc:type
         rdf:resource="http://purl.org/dc/dcmitype/StillImage" /></cc:Work></rdf:RDF></metadata><defs
   id="defs53" /><sodipodi:namedview
   pagecolor="#ffffff"
   bordercolor="#666666"
   borderopacity="1"
   objecttolerance="10"
   gridtolerance="10"
   guidetolerance="10"
   inkscape:pageopacity="0"
   inkscape:pageshadow="2"
   inkscape:window-width="640"
   inkscape:window-height="480"
   id="namedview51"
   showgrid="false"
   inkscape:zoom="2.4486917"
   inkscape:cx="28.346461"
   inkscape:cy="14.175301"
   inkscape:window-x="0"
   inkscape:window-y="0"
   inkscape:window-maximized="0"
   inkscape:current-layer="svg49" />
	<style
   type="text/css"
   id="style2">
	<![CDATA[
		.st1 {fill:#b8d432;stroke:none;stroke-linecap:butt;stroke-width:0.038081}
		.st2 {fill:#57a300;stroke:none;stroke-linecap:butt;stroke-width:0.038081}
		.st3 {fill:#6dc2e9;stroke:none;stroke-linecap:butt;stroke-width:0.038081}
		.st4 {fill:#804998;stroke:none;stroke-linecap:butt;stroke-width:0.038081}
		.st5 {fill:#808080;stroke:none;stroke-linecap:butt;stroke-width:0.038081}
		.st6 {fill:#ffffff;stroke:none;stroke-linecap:butt;stroke-width:0.038081}
		.st7 {fill:none;fill-rule:evenodd;font-size:12px;overflow:visible;stroke-linecap:square;stroke-miterlimit:3}
	]]>
	</style>

	<g
   id="g47"
   transform="translate(-5.66929,-5.6693596)">
		<title
   id="title4">Page-1</title>
		<g
   id="group20364-1"
   transform="translate(5.66929,-34.0157)">
			<title
   id="title6">SQL Database Query Performance Insight.20364</title>
			<g
   id="group20365-2">
				<title
   id="title8">Sheet.20365</title>
				<g
   id="shape20366-3"
   transform="translate(3.77083,-45.355)">
					<title
   id="title10">Sheet.20366</title>
					<ellipse
   cx="18.8965"
   cy="90.709"
   rx="18.8965"
   ry="5.6689401"
   class="st1"
   id="ellipse12"
   style="fill:#b8d432;stroke:none;stroke-width:0.038081;stroke-linecap:butt" />
				</g>
				<g
   id="shape20367-5"
   transform="translate(7.91909,-45.355)">
					<title
   id="title15">Sheet.20367</title>
					<path
   d="M 29.5,94.25 C 26.04,92.96 20.72,92.13 14.75,92.13 8.78,92.13 3.46,92.96 0,94.25 c 3.46,1.3 8.78,2.13 14.75,2.13 5.97,0 11.29,-0.83 14.75,-2.13 z"
   class="st2"
   id="path17"
   inkscape:connector-curvature="0"
   style="fill:#57a300;stroke:none;stroke-width:0.038081;stroke-linecap:butt" />
				</g>
				<g
   id="shape20368-7">
					<title
   id="title20">Sheet.20368</title>
					<path
   d="m 45.36,47.24 -0.01,40.64 c 0,4.69 -10.15,8.5 -22.67,8.5 C 10.16,96.38 0,92.57 0,87.88 L 0.01,47.24 c 0,4.7 10.15,8.5 22.67,8.5 12.52,0 22.68,-3.8 22.68,-8.5 z"
   class="st3"
   id="path22"
   inkscape:connector-curvature="0"
   style="fill:#6dc2e9;stroke:none;stroke-width:0.038081;stroke-linecap:butt" />
				</g>
				<g
   id="shape20369-9"
   transform="translate(3.77788,-22.6687)">
					<title
   id="title25">Sheet.20369</title>
					<path
   d="M 0,77.48 H 11.34 V 88.81 H 0 Z m 22.67,7.56 H 34.01 V 96.38 H 22.67 Z m 18.9,-18.9 H 52.91 V 77.48 H 41.57 Z"
   class="st4"
   id="path27"
   inkscape:connector-curvature="0"
   style="fill:#804998;stroke:none;stroke-width:0.038081;stroke-linecap:butt" />
				</g>
				<g
   id="shape20370-11"
   transform="translate(7.55929,-26.4539)">
					<title
   id="title30">Sheet.20370</title>
					<path
   d="m 0,85.04 22.67,7.56 18.9,-18.9 3.78,3.78 -19.45,18.34 0.56,0.56 -1.9,-0.01 L 0,88.81 Z"
   class="st4"
   id="path32"
   inkscape:connector-curvature="0"
   style="fill:#804998;stroke:none;stroke-width:0.038081;stroke-linecap:butt" />
				</g>
				<g
   id="shape20371-13"
   transform="translate(3.77788)">
					<title
   id="title35">Sheet.20371</title>
					<rect
   x="0"
   y="77.476799"
   width="52.915001"
   height="18.901199"
   class="st5"
   id="rect37"
   style="fill:#808080;stroke:none;stroke-width:0.038081;stroke-linecap:butt" />
				</g>
				<g
   id="shape20372-15"
   transform="translate(7.55929,-3.77812)">
					<title
   id="title40">Sheet.20372</title>
					<path
   d="M 0,96.38 H 45.35 V 85.04 H 0 Z M 3.78,92.6 H 7.56 V 88.82 H 3.78 Z"
   class="st6"
   id="path42"
   inkscape:connector-curvature="0"
   style="fill:#ffffff;stroke:none;stroke-width:0.038081;stroke-linecap:butt" />
				</g>
			</g>
		</g>
	</g>
</svg>
